X:1
T:Schilling, 87.87.87 D
T:Schilling, 87.87.87 D
T:Frederick Schilling, 1865
T:Public Domain Courtesy of the Cyber Hymnal™
C:Frederick Schilling, 1865
Z:Public Domain
Z:Courtesy of the Cyber Hymnal™
%%score ( 1 2 ) 3
L:1/8
Q:1/4=95
M:6/8
K:Eb
V:1 treble 
V:2 treble 
V:3 bass 
V:1
 [GB]2 [GB] ([^F=A][GB])[_Ac] | [GB]2 [Ge] [GB]2 [EG] | [GB]2 [EG] ([DF][EG])[FA] | %3
 [EG]2 [Ac] [GB]3 | [GB]2 [GB] ([^F=A][GB])[_Ac] | [GB]2 [Ge] [GB]2 [EG] | (Bc)[Gd] [Ge]2 [EG] | %7
 (FG)[DF] E3 | [DF]2 [Fd] [Fd]2 [Fd] | [Fd]2 [Fc] [Fd]2 [Fc] | [=Af]2 [Ge] [Fd]2 [Ec] | %11
 [DB]2 [EG] [DF]3 | [DF]2 [Fd] [Fd]2 [Fd] | [=Ed]2 [Ec] [_Ed]2 [Ec] | [=Af]2 [Ge] [Fd]2 [Ec] | %15
 ([DB][Fd])[Ec] [DB]3 | [GB]2 [GB] ([^F=A][GB])[_Ac] | [GB]2 [Ge] [GB]2 [EG] | %18
 [GB]2 [EG] ([DF][EG])[FA] | [EG]2 [Ac] [GB]3 | [GB]2 [GB] ([^F=A][GB])[_Ac] | %21
 [GB]2 [Ge] [GB]2 [EG] | [GB]2 [Ge] !fermata![Bg]2 [Ge] | (dc)[Ad] [Ge]3 |] %24
V:2
 x6 | x6 | x6 | x6 | x6 | x6 | G2 x4 | D2 E3 x | x6 | x6 | x6 | x6 | x6 | x6 | x6 | x6 | x6 | x6 | %18
 x6 | x6 | x6 | x6 | x6 | A2 x4 |] %24
V:3
 [E,B,]2 [E,B,] [E,B,]2 [E,B,] | [E,B,]2 [E,B,] [E,B,]2 [E,B,] | %2
 [B,,B,]2 [B,,B,] [B,,B,]2 [B,,B,] | [E,B,]2 [E,E] [E,E]3 | [E,B,]2 [E,B,] [E,B,]2 [E,B,] | %5
 [E,B,]2 [E,B,] [E,B,]2 [E,B,] | [B,,B,]2 [B,,B,] [B,,B,]2 [B,,B,] | [B,,A,]2 [B,,A,] [E,G,]3 | %8
 [B,,B,]2 [B,,B,] [B,,B,]2 [B,,B,] | [F,=A,]2 [F,A,] [F,A,]2 [F,A,] | %10
 [F,=A,]2 [F,A,] [F,A,]2 [F,A,] | [B,,B,]2 [B,,B,] [B,,B,]3 | [B,,B,]2 [B,,B,] [B,,B,]2 [B,,B,] | %13
 [B,,B,]2 [B,,B,] [F,=A,]2 [F,A,] | [F,=A,]2 [F,A,] [F,A,]2 [F,A,] | [B,,B,]2 [F,=A,] [B,,B,]3 | %16
 [E,B,]2 [E,B,] [E,B,]2 [E,B,] | [E,B,]2 [E,B,] [E,B,]2 [E,B,] | %18
 [B,,B,]2 [B,,B,] [B,,B,]2 [B,,B,] | [E,B,]2 [E,E] [E,E]3 | [E,B,]2 [E,B,] [E,B,]2 [E,B,] | %21
 [E,B,]2 [E,B,] [E,B,]2 [E,B,] | [E,B,]2 [E,B,] [E,B,]2 [E,B,] | [B,,B,]2 [B,,B,] [E,B,]3 |] %24

